assets/Rhinoceros/Flat/rhinoceros_flat.svg

<svg width="32" height="32" viewBox="0 0 32 32" fill="none" xmlns="http://www.w3.org/2000/svg">
<path d="M4 15.22C4 15.1 3.89 15 3.76 15.01C2.77 15.13 2 15.97 2 17V18L3 18.5L4 18C4 18 4 15.91 4 15.22Z" fill="#D3D3D3"/>
<path d="M22.73 24.73L18 20H27V29.69C27 29.86 26.86 30 26.69 30H23.31C23.14 30 23 29.86 23 29.69V25.39C23 25.14 22.9 24.9 22.73 24.73Z" fill="#636363"/>
<path d="M14 21.92H19V29.3C19 29.69 18.69 30 18.3 30H14.7C14.31 30 14 29.69 14 29.3V21.92Z" fill="#636363"/>
<path d="M24.82 12H20.01C19.22 12 18.47 11.64 18 11.01C17.09 9.79 15.64 9 14 9H13.85C11.37 9.07 9.42 11.15 9.42 13.63V14H8V12.76C8 12.34 7.65 12 7.23 12C6.66 12 6.29 12.6 6.56 13.11L7.0122 14.0144C5.87502 14.1423 5 15.1065 5 16.27V17.69C5 17.86 4.86 18 4.68 18H2V20.5C2 21.88 3.11 23 4.5 23H10.3608L8.04002 29.12C7.88002 29.54 8.20002 30 8.65002 30H11.99C12.4 30 12.77 29.75 12.92 29.36L14.4157 25.4143C15.5403 25.7942 16.7459 26 18 26C20.2774 26 22.3908 25.3215 24.1535 24.1535L24.73 24.73C24.9 24.9 25 25.14 25 25.39V29.69C25 29.86 25.14 30 25.31 30H29.68C29.85 30 29.99 29.86 29.99 29.69V22H30V17.17C30 14.32 27.68 12 24.82 12Z" fill="#9B9B9B"/>
<path d="M3.5 21.03C3.22 21.03 3 20.81 3 20.53V19.98C3 19.7 3.22 19.48 3.5 19.48C3.78 19.48 4 19.7 4 19.98V20.53C4 20.8 3.78 21.03 3.5 21.03Z" fill="#636363"/>
<path d="M6.5 18C6.77614 18 7 17.7761 7 17.5C7 17.2239 6.77614 17 6.5 17C6.22386 17 6 17.2239 6 17.5C6 17.7761 6.22386 18 6.5 18Z" fill="#1C1C1C"/>
</svg>

<svg xmlns="http://www.w3.org/2000/svg" width="32" height="32" fill="none"><path fill="#D3D3D3" d="M4 15.22c0-.12-.11-.22-.24-.21C2.77 15.13 2 15.97 2 17v1l1 .5 1-.5v-2.78Z"/><path fill="#636363" d="M22.73 24.73 18 20h9v9.69c0 .17-.14.31-.31.31h-3.38c-.17 0-.31-.14-.31-.31v-4.3c0-.25-.1-.49-.27-.66Z"/><path fill="#636363" d="M14 21.92h5v7.38c0 .39-.31.7-.7.7h-3.6c-.39 0-.7-.31-.7-.7v-7.38Z"/><path fill="#9B9B9B" d="M24.82 12h-4.81a2.5 2.5 0 0 1-2.01-.99A4.976 4.976 0 0 0 14 9h-.15c-2.48.07-4.43 2.15-4.43 4.63V14H8v-1.24c0-.42-.35-.76-.77-.76-.57 0-.94.6-.67 1.11l.452.904A2.269 2.269 0 0 0 5 16.27v1.42c0 .17-.14.31-.32.31H2v2.5C2 21.88 3.11 23 4.5 23h5.86l-2.32 6.12c-.16.42.16.88.61.88h3.34c.41 0 .78-.25.93-.64l1.496-3.946c1.124.38 2.33.586 3.584.586 2.277 0 4.39-.678 6.154-1.846l.576.576c.17.17.27.41.27.66v4.3c0 .17.14.31.31.31h4.37c.17 0 .31-.14.31-.31V22H30v-4.83c0-2.85-2.32-5.17-5.18-5.17Z"/><path fill="#636363" d="M3.5 21.03c-.28 0-.5-.22-.5-.5v-.55c0-.28.22-.5.5-.5s.5.22.5.5v.55c0 .27-.22.5-.5.5Z"/><path fill="#1C1C1C" d="M6.5 18a.5.5 0 1 0 0-1 .5.5 0 0 0 0 1Z"/></svg>
